!!!!SEGMENT: pl-wtm--r-1658_stefani-jozef--trwac-w-chrystusa-swietej-wierze.krn
!!!cenid: 18xx:2052
!!!COM: Stefani, Józef
!!!COM-rismid: pe30024097
!!!CDT: 1800/04/16-1876/03/19
!!!CNT: Polish
!!!OTL: Trwać w Chrystusa świętej wierze
!!!PDT:
!!!AGN: Secular
!!!OMD: Adagio
!!!SMS-siglum: PL-Wtm
!!!SMS-shelfmark: R 1658
!!!SMS-shelfwork: W
!!!SMS-variant:
!!!SMS-altvar:
!!!NIFC-rismid: 1001114906
!!!URL-scan: http://repozytorium.nifc.pl/skany/pl-wtm-nut--r1652--r1653--r1654--r1655--r1656--r1657--r1658--r1659--r1660--r1661
!!!ONB-nifc: UWAGA: No. 15, skan 0010
**kern	**kern	**dynam	**kern	**text	**text	**text	**text	**dynam
*group1	*group1	*group1	*	*	*	*	*	*
*part3	*part2	*part2	*part1	*part1	*part1	*part1	*part1	*part1
*staff3	*staff2	*	*staff1	*staff1	*staff1	*staff1	*staff1	*
*Iempty	*Iforte	*	*Ivox	*	*	*	*	*
*	*I"Fortepian	*	*I"Spiew	*	*	*	*	*
*	*I'pf	*	*I'V	*	*	*	*	*
*clefF4	*clefG2	*	*clefG2	*	*	*	*	*
*k[b-]	*k[b-]	*	*k[b-]	*	*	*	*	*
*F:	*F:	*	*F:	*	*	*	*	*
*M2/4	*M2/4	*	*M2/4	*	*	*	*	*
=1	=1	=1	=1	=1	=1	=1	=1	=1
!	!	!	!LO:TX:a:B:t=No. 15	!	!	!	!	!
(8FF/L	4.cc/ 4.a/	.	4.cc/ 4.a/	1.) Trwać	2.) W każ-	3.) A	4.) Pó-	.
8AA/	.	.	.	.	.	.	.	.
8C/	.	.	.	.	.	.	.	.
8F/J)	8a/ 8f/	.	8a/ 8f/	w Chris-	-dym	po	-ki	.
=2	=2	=2	=2	=2	=2	=2	=2	=2
!LO:TX:t=P:problem:mixed beam	!	!	!	!	!	!	!	!
8BB-/L	4dd\ 4b-\	.	4dd\ 4b-\	-tu-	człe-	Bo-	sił	.
8F\J	.	.	.	.	.	.	.	.
!LO:TX:t=P:problem:mixed beam	!	!	!	!	!	!	!	!
8FF/L	4cc\ 4a\	.	4cc\ 4a\	-sa	-ku	-gu	i	.
([8F\J	.	.	.	.	.	.	.	.
=3	=3	=3	=3	=3	=3	=3	=3	=3
8F\L]	4.b-/ 4.g/	.	4.b-/ 4.g/	świę-	wi-	Ko-	ży-	.
16E\L	.	.	.	.	.	.	.	.
16D\JJ	.	.	.	.	.	.	.	.
4E\)	.	.	.	.	.	.	.	.
.	8cc/ 8g/ 8c/	.	8cc/ 8c/	-tej	-dzieć	-chać	-cia	.
=4	=4	=4	=4	=4	=4	=4	=4	=4
!LO:TX:t=P:problem:mixed beam	!	!	!	!	!	!	!	!
8F\L	4a/ 4f/ 4c/	.	4a/ 4f/	wie-	bra-	źie-	sta-	.
8A\	.	.	.	.	.	.	.	.
8c\	4g/ 4e/ 4c/	.	4g/ 4e/	-rze	-ta	-mię	-nie	.
8C/J	.	.	.	.	.	.	.	.
=5	=5	=5	=5	=5	=5	=5	=5	=5
!!LO:LB:g=original
*	*^	*	*^	*	*	*	*	*
8D/L	4f/ 4d/	4ryy	.	4f/ 4d/	4ryy	I	Nie-	Ży-	Ob-	.
8C/J	.	.	.	.	.	.	.	.	.	.
4BBn/	8g/L	4d\	.	8g/L	4d\	krzyż	-win-	-cie	-sta-	.
.	8f/J	.	.	8f/J	.	.	.	.	.	.
*	*v	*v	*	*	*	*	*	*	*	*
*	*	*	*v	*v	*	*	*	*	*
=6	=6	=6	=6	=6	=6	=6	=6	=6
2C/	4e/ 4c/	.	(8.e/L 8.c/	Je-	-no-	o-	-wać	.
.	.	.	16g/Jk 16e/)	.	.	.	.	.
.	4g/ 4e/	.	4g/ 4e/	-go	-ści	-snuć	za	.
=7	=7	=7	=7	=7	=7	=7	=7	=7
!	!	!LO:DY:rj	!LO:TX:a:i:t=rall&colon;	!	!	!	!	!LO:DY:a:rj
4F\	4a-X/ 4f/	f	4a-X/ 4f/	dzwi-	bro-	ziom-	Oj-	f
8.C/L	(8.g/L 8.e/	.	8.g/L 8.e/	-gać	-nic	-ków	-ców	.
16D-X/Jk	16bn/Jk 16f/)	.	16bn/Jk 16f/	.	.	.	.	.
=8	=8	=8	=8	=8	=8	=8	=8	=8
!	!	!	!	!	!	!	!	!LO:DY:a
(8.D-X/L	8.bn/L 8.g/ 8.f/	> ]	(>8.bn/L 8.f/	krwa-	żwa-	spra-	sła-	> ]
16C/Jk)	16cc/Jk 16e/	.	16cc/Jk 16e/)	.	.	.	.	.
4C/	4cc/ 4e/	.	4cc/ 4e/	-wo	-wo	-wą	-wą	.
=9	=9	=9	=9	=9	=9	=9	=9	=9
!!LO:LB:g=original
!	!	!	!LO:TX:a:i:t=a tempo	!	!	!	!	!
((8CC/L	4b-X/ 4g/	.	4b-X/ 4g/	Ja-	I	Roz-	Nie	.
8C/J)	.	.	.	.	.	.	.	.
8CC/L	4a/ 4f/	.	4a/ 4f/	-wnie	nie	-sze-	paść	.
8C/J)	.	.	.	.	.	.	.	.
=10	=10	=10	=10	=10	=10	=10	=10	=10
*rep	*	*	*	*	*	*	*	*
((8CC/L	4g/ 4e/	.	4g/ 4e/	mó-	thór-	-rzać	w świa-	.
8C/J)	.	.	.	.	.	.	.	.
8CC/L	4c/	.	4e/ 4c/	-wić	-żyć	po-	-tów	.
8C/J)	.	.	.	.	.	.	.	.
*Xrep	*	*	*	*	*	*	*	*
=11	=11	=11	=11	=11	=11	=11	=11	=11
(>8CC/L	4cc/ 4a/	.	4cc/ 4a/	dzia-	wo-	-czci-	u-	.
8C/J	.	.	.	.	.	.	.	.
8CC#X/L	4b-/ 4g/	.	4b-/ 4g/	-łać	-bec	-wych	-ra-	.
8C#X/J)	.	.	.	.	.	.	.	.
=12	=12	=12	=12	=12	=12	=12	=12	=12
(8DD/L	(8.a/L 8.f/	.	8.a/L 8.f/	szcze-	świa-	ple-	-ga-	.
8D/	.	.	.	.	.	.	.	.
.	16ff/Jk 16a/)	.	16ff/Jk 16a/	.	.	.	.	.
8DD/	4ff/ 4a/	.	4ff/ 4a/	-rze	-ta	-mie	-nie	.
8Cn/J)	.	.	.	.	.	.	.	.
=13	=13	=13	=13	=13	=13	=13	=13	=13
!!LO:LB:g=original
(8BB-\L	4.dd/ 4.b-/ 4.f/	.	4.dd\ 4.b-\	O-	.	.	.	.
8D\	.	.	.	.	.	.	.	.
8F\	.	.	.	.	.	.	.	.
8B-\J)	8b-/ 8g/	.	8b-/ 8g/	-to	.	.	.	.
=14	=14	=14	=14	=14	=14	=14	=14	=14
(8C\L	4a/ 4f/	.	4a/ 4f/	bra-	.	.	.	.
8F\	.	.	.	.	.	.	.	.
8A\	4a/ 4f/	.	4a/ 4f/	-cia	.	.	.	.
8c\J)	.	.	.	.	.	.	.	.
=15	=15	=15	=15	=15	=15	=15	=15	=15
*	*^	*	*^	*	*	*	*	*
(8C\L	4.g/	4f\	.	4.g/	(4f\	na-	.	.	.	.
8F\	.	.	.	.	.	.	.	.	.	.
8G\	.	8e\L	.	.	8e\)	.	.	.	.	.
8C\J)	8cc/	8e\J	.	8cc/	8e\	-sze	.	.	.	.
*	*v	*v	*	*	*	*	*	*	*	*
*	*	*	*v	*v	*	*	*	*	*
=16	=16	=16	=16	=16	=16	=16	=16	=16
(8D\L	4.a/ 4.f/	.	4a/ 4f/	pra-	.	.	.	.
8F\	.	.	.	.	.	.	.	.
8E\	.	.	8a/ 8f/	-wo!	.	.	.	.
8D\J)	8r	.	8r	.	.	.	.	.
=17	=17	=17	=17	=17	=17	=17	=17	=17
!!LO:PB:g=original
(8BB-\L	(8.dd\L 8.b-\	.	(8.dd\L 8.b-\	O-	.	.	.	.
8D\	.	.	.	.	.	.	.	.
.	32ee\LL 32cc\	.	32ee\LL 32cc\	.	.	.	.	.
.	32dd\JJJ 32b-\)	.	32dd\JJJ 32b-\)	.	.	.	.	.
8F\	8cc/L 8a/	.	8cc\ 8a\	.	.	.	.	.
8B-\J)	8b-/J 8g/	.	8b-/ 8g/	-to	.	.	.	.
=18	=18	=18	=18	=18	=18	=18	=18	=18
(8C/L	4a/ 4f/	.	8.a/L 8.f/	bra-	.	.	.	.
8C#X/	.	.	.	.	.	.	.	.
.	.	.	16ff/Jk 16a/	.	.	.	.	.
8D/	4ff\ 4a\ 4f\	.	4ff\ 4a\	-cia	.	.	.	.
8Cn/J)	.	.	.	.	.	.	.	.
=19	=19	=19	=19	=19	=19	=19	=19	=19
4BB-/	4dd/ 4b-/ 4f/	.	(>4dd/ 4f/	na-	.	.	.	.
4C/	8cc/ 8e/	.	8cc/ 8e/)	.	.	.	.	.
.	(16b-/LL 16d/	.	(16b-/LL 16d/	-sze	.	.	.	.
.	16g/JJ 16e/)	.	16g/JJ 16e/)	.	.	.	.	.
=20	=20	=20	=20	=20	=20	=20	=20	=20
4.F\	4.f/	.	4f/	pra-	.	.	.	.
.	.	.	8f/	-wo!	.	.	.	.
8r	8r	.	8r	.	.	.	.	.
=21	=21	=21	=21	=21	=21	=21	=21	=21
!!LO:LB:g=original
*2\right	*2\right	*	*	*	*	*	*	*
!	!	!LO:DY:rj	!	!	!	!	!	!LO:DY:a:rj
2C\ 2CC\	2e/ 2c\ 2B-</ 2G</	p	(8.g/L 8.e/	O-	.	.	.	p
.	.	.	16cc/Jk 16c/)	.	.	.	.	.
.	.	.	4cc/ 4c/	-to	.	.	.	.
=22	=22	=22	=22	=22	=22	=22	=22	=22
2F\ 2FF\	2f/ 2c/ 2A</	.	(8.a/L 8.f/	bra-	.	.	.	.
.	.	.	16cc/Jk 16c/)	.	.	.	.	.
.	.	.	4cc/ 4c/	-cia	.	.	.	.
=23	=23	=23	=23	=23	=23	=23	=23	=23
4r	4r	.	4r	.	.	.	.	.
8r	8r	.	8r	.	.	.	.	.
!	!	!LO:DY:rj	!	!	!	!	!	!LO:DY:a:rj
16B-\LL	16b-/LL	f	16b-/	na-	.	.	.	f
16G\JJ	16g/JJ	.	16g/	-sze	.	.	.	.
=24	=24	=24	=24	=24	=24	=24	=24	=24
4c\	4cc\	.	2cc/ 2c/	pra-	.	.	.	.
4c\ 4C\	4ee\ 4cc\ 4b-\ 4g\	.	.	.	.	.	.	.
=25	=25	=25	=25	=25	=25	=25	=25	=25
!!LO:LB:g=original
4F/ 4FF/	4ff\ 4cc\ 4a\	.	4f/	-wo!	.	.	.	.
4r	4r	.	4r	.	.	.	.	.
==	==	==	==	==	==	==	==	==
*-	*-	*-	*-	*-	*-	*-	*-	*-
!!!system-decoration: s1{(s2,s3)}
!!!RDF**kern: > = above
!!!RDF**kern: < = below
!!!EED: Andrzej Borzym
!!!EST: 2021-05-08
!!!AIN: 1 empty 1 forte 1 vox
!!!ENC: Tomasz Grochalski
!!!END: 2021-04-26
